X:1
T:James Gibb editions
T:Rest in the Lord; rest, weary heart - Barnby
%%score [ ( 1 2 ) ( 3 4 ) ]
L:1/8
Q:1/4=160
M:3/2
K:C
V:1 treble nm="Midi_74"
V:2 treble 
V:3 bass nm="Midi_74"
V:4 bass 
V:1
"^Bickersteth (86. 86. 86. 84)""^Rest in the Lord; rest, weary heart""^Joseph Barnby\n(1838-96)" E4 F4 D4 | %1
 C8 E4 | G8 F4 | E8 || E4 | c8 c4 | B8 A4 | G8 || G4 | B8 A4 | G8 B4 | d8 c4 | B8 || e4 | d8 G4 | %15
 A8 B4 | G8 || G4 | d8 c4 | B8 A4 | (G4 A4) G4 | c8 || G4 | _B8 B4 | (_B4 A4) G4 | A12 || %26
 A4 F4 G4 | A8 d4 | d8 G4 | (G8 A4) | C12 | D8 C4 | C12 || F12 | E12 |] %35
V:2
 C4 B,4 B,4 | C8 C4 | C8 C4 | C8 || D4 | C8 E4 | (^D4 E4) ^F4 | E8 || E4 | G8 ^F4 | E8 G4 | %11
 (G4 E4) ^F4 | G8 || G4 | G8 G4 | G8 ^F4 | G8 || G4 | F8 F4 | F8 F4 | F8 D4 | G8 || G4 | E8 E4 | %24
 E8 E4 | F12 || F4 D4 E4 | F8 F4 | F8 D4 | C12 | G,12 | B,8 C4 | C12 || C12 | C12 |] %35
V:3
 G,4- D,4 F,4 | E,8 G,4 | _B,8 A,4 | G,8 || ^G,4 | (A,4 E,4) G,4 | ^F,8 B,4 | B,8 || B,4 | %9
 (B,4 ^C4) ^D4 | E8 G,4 | (B,4 G,4) A,4 | B,8 || A,4 | B,8 B,4 | E8 D4 | B,8 || G,4 | B,8 C4 | %19
 D8 C4 | B,8 B,4 | C8 || G,4 | G,8 G,4 | (G,4 A,4) _B,4 | A,12 || A,4 A,4 A,4 | D8 A,4 | G,8 F,4 | %29
 (E,8 D,4) | E,12 | F,8 E,4 | E,12 || A,12 | G,12 |] %35
V:4
 C,4 C,4 C,4 | C,8 C,4 | E,8 F,4 | C,8 || B,,4 | A,,8 A,,4 | (B,,4 ^C,4) ^D,4 | E,8 || E,4 | %9
 B,,8 B,,4 | E,8 E,4 | D,8 D,4 | G,8 || ^C,4 | D,8 E,4 | C,8 D,4 | G,8 || G,4 | G,,8 A,,4 | %19
 B,,8 C,4 | D,8 F,4 | E,8 || G,4 | C,8 C,4 | C,8 C,4 | F,12 || D,4 D,4 D,4 | D,8 C,4 | B,,8 B,,4 | %29
 (C,8 ^F,,4) | G,,12 | G,,8 C,4 | C,12 || F,,12 | C,12 |] %35

